X:1043
T:Coen's Memories
T:Tommy Coen's
T:Cottage in the Grove, The
R:reel
C:Tommy Coen (1910-1974)
H:Originally written in Gdor
H:Most often played in Edor #227
Z:id:hn-reel-1043
M:C|
K:Ador
AGED EABd | e2ae gedB | G2GB A2GE | DGBG AGED |
EA~A2 GABd | e2ae gedB | GABd gedB |1 GABG A2AB :|2 GABG A2Ad ||
|: ea~a2 bage | aeba gedB | ~d3e g2bg | agab g2ed |
ea~a2 bage | a2ba gedB | GABd gedB |1 GABG A2Ad :|2 GABG A2AB ||
P:Variations:
|: ~A3G ABcd | e2ae gedB | GABG A2GE | DEGB AGED |
EA~A2 GABd | ea~a2 gedB | GABd e2dB |1 GABG A2AB :|2 GABG A2Ad ||
|: ea~a2 bage | a2ba gedB | dBde g2bg | agab g2ed |
ea~a2 bage | ac'ba gedB | GABd e2dB |1 GABG A2Ad :|2 GABG A2AB ||

